X:439
T: Schnster Schatz, willst du' s erlauben (156b), S. 341
N: T0327
O: Luxemburg
S: Singendes Volk, Esch-Alzette 1937, posth.]
N: Heffingen, fff Anna Kimmel, 1932
R: historische, Kriegs- und Soldatenlieder, Liebeslied]
M: 4/4
L: 1/8
K: F
C2 | F3Ac2AA | G3AG2
GA | B3BB2cB | A2FFF2
FF | A3cf2ed | c3AA2
dd | c2G2B2AG | F2z4

